!!!COA: Josquin des Prez
!!!CDT: ~1450-1521/08/27
!!!OTL: De tous biens plaine
!!!AGN: Chanson
!!!SCT: NJE 27.6
!!!SCA: New Josquin Edition 27.6
!!!voices: 3
**kern	**kern	**kern
*staff3	*staff2	*staff1
*Ivox	*Ivox	*Ivox
*I"Contra	*I"Tenor	*I"Discantus
*I'C	*I'T	*I'D
*clefF4	*clefGv2	*clefG2
*k[b-]	*k[b-]	*k[b-]
*M2/1	*M2/1	*M2/1
*met(C|)	*met(C|)	*met(C|)
=1-	=1-	=1-
!LO:TX:Z=16:t=Canon at the upper fifth	!	!LO:TX:Z=16:t=Discantus by Hayne van Ghizeghem
0G	1r	0g
.	[1d	.
=2	=2	=2
1G	1d]	1.g
1G	1d	.
.	.	4f/
.	.	4e/
=3	=3	=3
1.G	1d	1d
.	[1d	[1g
4F\	.	.
4E\	.	.
=4	=4	=4
1D	2d\]	1g]
.	4c\	.
.	4B-\	.
1r	1A	1f#i
=5	=5	=5
1.G	1r	1g
.	[1d	1g
2A\	.	.
=6	=6	=6
1B-	2d\]	1g
.	2e\	.
1r	1f	1a
=7	=7	=7
1G	1r	2b-\
.	.	2a/
1r	1d	1f
=8	=8	=8
1G	1r	1g
2D\	1d	[1f
[2F\	.	.
=9	=9	=9
1F]	2A/	1f]
.	1.c	.
2.C/	.	2g/
.	.	2f/
4D\	.	.
=10	=10	=10
2.E\	2.G/	1e
4F\	4A/	.
2G\	2.B-\	[1d
[2B-\	.	.
.	4c\	.
=11	=11	=11
2B-\]	2d\	1d]
4A\	1f	.
4G\	.	.
1F	.	2f/
.	4e\	2g/
.	4d\	.
=12	=12	=12
1r	1c	1a
[1G	1r	[1b-
=13	=13	=13
2G\]	1.d	2b-\]
2F\	.	2a/
2G\	.	[1g
2E\	2c\	.
=14	=14	=14
2F\	2d\	1g]
2G\	2B-\	.
1A	2c\	1f#i
.	2d\	.
=15	=15	=15
0G	1e-i	0g
.	[1d	.
=16	=16	=16
1.G	1d]	1r
.	[1d	1g
[2B-\	.	.
=17	=17	=17
1B-]	2d\]	1b-
.	1.f	.
2.B-\	.	1b-
4A\	.	.
=18	=18	=18
2.F\	2.f\	1a
4G\	4e\	.
4A\	2.c\	1a
4B-\	.	.
[2c\	.	.
.	4d\	.
=19	=19	=19
2c\]	4e\	1g
.	4f\	.
4B-\	1g	.
4A\	.	.
1G	.	1g
.	4f\	.
.	4e\	.
=20	=20	=20
2r	1d	1.a
1F	.	.
.	2r	.
4E\	[2c\	4g/
4D\	.	4f/
=21	=21	=21
1.C	2c\]	0e
.	4B-\	.
.	4A/	.
.	[1G	.
[2G\	.	.
=22	=22	=22
2G\]	2G/]	2d/
4F\	1d	1f
4E\	.	.
1D	.	.
.	4c\	4e/
.	4B-\	4d/
=23	=23	=23
1r	1A	1c
1D	1r	1d
=24	=24	=24
2C/	1A	0e
2AA/	.	.
2.C/	2G/	.
.	2E/	.
4D\	.	.
=25	=25	=25
1E-	2.G/	1c
.	4A/	.
2r	1B-	1f
2BB-/	.	.
=26	=26	=26
2C/	2r	2e/
2D\	2F/	2d/
2GG/	2G/	[1d
[2D\	2A/	.
=27	=27	=27
2D\]	2D/	1d]
2AA/	1A	.
2.C/	.	1c
.	2E/	.
4BB-/	.	.
=28	=28	=28
2.GG/	2.G/	0d
4AA/	4F/	.
2.BB-/	2.D/	.
4C/	4E/	.
=29	=29	=29
1.D	2.F/	1r
.	4G/	.
.	[1A	2f/
2E\	.	2g/
=30	=30	=30
1F	2A/]	1.a
.	2B-\	.
2r	1c	.
[2C/	.	4g/
.	.	4f/
=31	=31	=31
4C/]	2r	1e
4D\	.	.
4E\	2.G/	.
4F\	.	.
1G	.	[1d
.	4A/	.
.	4B-\	.
.	4c\	.
=32	=32	=32
2r	1d	1d]
2.GG/	.	.
.	2r	[1g
4AA/	.	.
4BB-/	[2D/	.
4C/	.	.
=33	=33	=33
1D	4D/]	2g/]
.	4E/	.
.	4F/	2f#i/
.	4G/	.
1r	1A	2f#i/
.	.	2e/
=34	=34	=34
2.G\	1r	1.g
4A\	.	.
4B-\	2.d\	.
4c\	.	.
[2d\	.	4f/
.	4e\	4e/
=35	=35	=35
2d\]	4f\	1d
.	4g\	.
2D\	1a	.
[1F	.	[1c
.	2A/	.
=36	=36	=36
2F\]	1.c	1c]
2F\	.	.
1F	.	1f
.	2c\	.
=37	=37	=37
2r	1c	1e
2C/	.	.
2BB-/	2r	[1d
2GG/	2G/	.
=38	=38	=38
1D	2F/	1d]
.	2D/	.
1r	1A	1c#i
=39	=39	=39
1.D	1r	1.d
.	[1A	.
[2F\	.	4c/
.	.	4B-/
=40	=40	=40
4F\]	2A/]	0A
4G\	.	.
4A\	2.c\	.
4B-\	.	.
1c	.	.
.	4d\	.
.	4e\	.
.	4f\	.
=41	=41	=41
2r	1g	0G
1.C	.	.
.	2r	.
.	[2G/	.
=42	=42	=42
2.E\	1G]	1r
4F\	.	.
[1G	2.B-\	1G
.	4c\	.
=43	=43	=43
2G\]	1.d	2B-/
4F\	.	2c/
4E\	.	.
1D	.	1d
.	4c\	.
.	4B-\	.
=44	=44	=44
2r	1A	1c
1F	.	.
.	2r	1f
4E\	[2c\	.
4D\	.	.
=45	=45	=45
2C/	2c\]	2e/
1G	4B-\	2d/
.	4A/	.
.	2G/	[1d
4F\	[2d\	.
4E\	.	.
=46	=46	=46
1D	2d\]	1d]
.	4c\	.
.	4B-\	.
1r	1A	1c#i
=47	=47	=47
1D	1r	0d
1F	1A	.
=48	=48	=48
2.E\	1c	1r
4F\	.	.
2.G\	2.B-\	1d
4F\	4c\	.
=49	=49	=49
2.D\	2.d\	2f/
.	.	2g/
4E\	4c\	.
2.F\	2.A/	[1a
4G\	4B-\	.
=50	=50	=50
1A	2.c\	1a]
.	4d\	.
2r	1e	2cc\
2c\	.	2a/
=51	=51	=51
2B-\	2r	1.b-
2G\	2g\	.
1D	2f\	.
.	2d\	4a/
.	.	4g/
=52	=52	=52
2r	1A	1f
2A\	.	.
2B-\	2r	1g
2G\	2e\	.
=53	=53	=53
1D	2f\	1a
.	2d\	.
1r	1A	1f
=54	=54	=54
2G\	1r	2b-\
2F\	.	2a/
2G\	2d\	1g
2E\	2c\	.
=55	=55	=55
1D	2d\	0f
.	2B-\	.
1r	1A	.
=56	=56	=56
1G	1r	1b-
1r	1d	1a
=57	=57	=57
2r	1r	1b-
2G\	.	.
2F\	2r	2cc\
2G\	2d\	2b-\
=58	=58	=58
2C/	2c\	2a/
1G	2d\	2g/
.	2G/	[1g
4F\	[2d\	.
4E\	.	.
=59	=59	=59
1D	2d\]	1g]
.	4c\	.
.	4B-\	.
1r	1A	1f#i
=60	=60	=60
0Gl	1r	0gl
.	1dl	.
==	==	==
*-	*-	*-
!!!RDF**kern: l=long note in original notation
!!!RDF**kern: i=editorial accidental
!!!ENC: Jesse Rodin; Victoria Chang 2011/05/30
!!!END: 2011/05/30/
!!!EED: Jesse Rodin
!!!EEV: 2011/08/12/
!!attribution-level@Jos: 3 (tricky)
!!!ONB: Translated from MusicXML and edited on 2011/08/12/ by Craig Sapp
!!muse2ps:  C^@{COM}{/}@{COA}?\n@{SCT}^v100,100,150I150Q16
